src/assets/linkedin.svg

<svg id="SvgjsSvg1001" width="288" height="288" xmlns="http://www.w3.org/2000/svg" version="1.1" xmlns:xlink="http://www.w3.org/1999/xlink" xmlns:svgjs="http://svgjs.com/svgjs"><defs id="SvgjsDefs1002"></defs><g id="SvgjsG1008" transform="matrix(0.916700005531311,0,0,0.916700005531311,11.995199203491211,11.995199203491211)"><svg xmlns="http://www.w3.org/2000/svg" width="288" height="288" viewBox="0 0 512 512"><path d="m475.074219 0h-438.148438c-20.394531 0-36.925781 16.53125-36.925781 36.925781v438.148438c0 20.394531 16.53125 36.925781 36.925781 36.925781h438.148438c20.394531 0 36.925781-16.53125 36.925781-36.925781v-438.148438c0-20.394531-16.53125-36.925781-36.925781-36.925781zm-293.464844 387h-62.347656v-187.574219h62.347656zm-31.171875-213.1875h-.40625c-20.921875 0-34.453125-14.402344-34.453125-32.402344 0-18.40625 13.945313-32.410156 35.273437-32.410156 21.328126 0 34.453126 14.003906 34.859376 32.410156 0 18-13.53125 32.402344-35.273438 32.402344zm255.984375 213.1875h-62.339844v-100.347656c0-25.21875-9.027343-42.417969-31.585937-42.417969-17.222656 0-27.480469 11.601563-31.988282 22.800781-1.648437 4.007813-2.050781 9.609375-2.050781 15.214844v104.75h-62.34375s.816407-169.976562 0-187.574219h62.34375v26.558594c8.285157-12.78125 23.109375-30.960937 56.1875-30.960937 41.019531 0 71.777344 26.808593 71.777344 84.421874zm0 0" fill="#ffffff" class="color000 svgShape"></path></svg></g></svg>

<svg xmlns="http://www.w3.org/2000/svg" width="288" height="288"  xmlns:v="https://vecta.io/nano"><g transform="matrix(.9167 0 0 .9167 11.995199 11.995199)"><svg width="288" height="288" viewBox="0 0 512 512"><path d="M475.074 0H36.926C16.531 0 0 16.531 0 36.926v438.148C0 495.469 16.531 512 36.926 512h438.148C495.469 512 512 495.469 512 475.074V36.926C512 16.531 495.469 0 475.074 0zM181.609 387h-62.348V199.426h62.348zm-31.172-213.187h-.406c-20.922 0-34.453-14.402-34.453-32.402 0-18.406 13.945-32.41 35.273-32.41s34.453 14.004 34.859 32.41c0 18-13.531 32.402-35.273 32.402zM406.422 387h-62.34V286.652c0-25.219-9.027-42.418-31.586-42.418-17.223 0-27.48 11.602-31.988 22.801-1.648 4.008-2.051 9.609-2.051 15.215V387h-62.344V199.426h62.344v26.559c8.285-12.781 23.109-30.961 56.188-30.961 41.02 0 71.777 26.809 71.777 84.422zm0 0" fill="#fff"/></svg></g><defs /></svg>
